; generated by PrusaSlicer 2.0.0+win64 on 2019-05-30 at 07:08:51

; 

; external perimeters extrusion width = 0.45mm
; perimeters extrusion width = 0.45mm
; infill extrusion width = 0.45mm
; solid infill extrusion width = 0.45mm
; top infill extrusion width = 0.40mm
; first layer extrusion width = 0.42mm

M73 P0 R10
M73 Q0 S10
M201 X1000 Y1000 Z1000 E5000 ; sets maximum accelerations, mm/sec^2
M203 X200 Y200 Z12 E120 ; sets maximum feedrates, mm/sec
M204 P1250 R1250 T1250 ; sets acceleration (P, T) and retract acceleration (R), mm/sec^2
M205 X8.00 Y8.00 Z0.40 E1.50 ; sets the jerk limits, mm/sec
M205 S0 T0 ; sets the minimum extruding and travel feed rate, mm/sec
M107
M115 U3.7.1 ; tell printer latest fw version
G90 ; use absolute coordinates
M83 ; extruder relative mode
M104 S215 ; set extruder temp
M140 S60 ; set bed temp
M190 S60 ; wait for bed temp
M109 S215 ; wait for extruder temp
G28 W ; home all without mesh bed level
G80 ; mesh bed leveling
G1 Y-3.0 F1000.0 ; go outside print area
G92 E0.0
G1 X60.0 E9.0 F1000.0 ; intro line
M73 Q0 S9
M73 P0 R9
G1 X100.0 E12.5 F1000.0 ; intro line
G92 E0.0
M221 S95
M900 K30 ; Filament gcode
G21 ; set units to millimeters
G90 ; use absolute coordinates
M83 ; use relative distances for extrusion
;BEFORE_LAYER_CHANGE
G92 E0.0
;0.2


G1 E-0.80000 F2100.00000
G1 Z0.600 F10800.000
;AFTER_LAYER_CHANGE
;0.2
G1 X127.954 Y72.972
G1 Z0.200
G1 E0.80000 F2100.00000
M204 S1000
G1 F1200
G1 X128.651 Y73.426 E0.02608
G1 X129.130 Y74.111 E0.02620
G1 X129.318 Y74.925 E0.02620
G1 X129.314 Y135.149 E1.88828
G1 X129.172 Y135.788 E0.02055
G1 X128.845 Y136.360 E0.02066
G1 X128.365 Y136.807 E0.02055
G1 X127.775 Y137.092 E0.02055
G1 X127.171 Y137.188 E0.01919
G1 X122.720 Y137.183 E0.13956
G1 X121.945 Y136.984 E0.02507
G1 X121.294 Y136.520 E0.02507
G1 X120.854 Y135.853 E0.02507
G1 X120.682 Y135.072 E0.02507
G1 X120.686 Y74.851 E1.88816
G1 X120.826 Y74.215 E0.02044
G1 X121.148 Y73.648 E0.02044
G1 X121.623 Y73.201 E0.02044
G1 X122.208 Y72.914 E0.02044
G1 X122.826 Y72.812 E0.01964
G1 X127.134 Y72.811 E0.13510
G1 X127.895 Y72.961 E0.02431
G1 F8640
G1 X128.651 Y73.426 E-0.20499
G1 X129.130 Y74.111 E-0.19291
G1 X129.318 Y74.925 E-0.19291
G1 X129.318 Y75.657 E-0.16919
G1 E-0.04000 F2100.00000
G1 Z0.800 F10800.000
G1 X125.974 Y75.587
G1 Z0.200
G1 E0.80000 F2100.00000
G1 F1200
G1 X125.973 Y134.413 E1.84444
G1 X124.027 Y134.413 E0.06102
G1 X124.027 Y75.587 E1.84444
G1 X125.914 Y75.587 E0.05916
G1 X126.350 Y75.210 F10800.000
G1 F1200
G1 X126.350 Y134.790 E1.86809
G1 X123.650 Y134.790 E0.08467
G1 X123.650 Y75.210 E1.86809
G1 X126.290 Y75.210 E0.08280
G1 X126.344 Y75.610 F10800.000
G1 F8640
G1 X126.294 Y78.501 E-0.76000
G1 E-0.04000 F2100.00000
G1 Z0.800 F10800.000
G1 X125.861 Y76.465
G1 Z0.200
G1 E0.80000 F2100.00000
G1 F1200
G1 X125.266 Y75.870 E0.02645
G1 X124.732 Y75.870 E0.01680
G1 X125.692 Y76.830 E0.04268
G1 X125.693 Y77.365 E0.01681
G1 X124.310 Y75.982 E0.06146
G1 X124.310 Y76.517 E0.01680
G1 X125.693 Y77.900 E0.06147
G1 X125.693 Y78.434 E0.01680
G1 X124.310 Y77.051 E0.06147
G1 X124.310 Y77.586 E0.01680
G1 X125.693 Y78.969 E0.06147
G1 X125.693 Y79.503 E0.01680
G1 X124.310 Y78.120 E0.06147
G1 X124.310 Y78.655 E0.01680
G1 X125.693 Y80.038 E0.06147
G1 X125.693 Y80.572 E0.01680
G1 X124.310 Y79.189 E0.06147
G1 X124.310 Y79.723 E0.01680
G1 X125.693 Y81.107 E0.06147
G1 X125.693 Y81.641 E0.01680
G1 X124.310 Y80.258 E0.06146
G1 X124.310 Y80.792 E0.01680
G1 X125.693 Y82.175 E0.06146
G1 X125.693 Y82.710 E0.01680
G1 X124.310 Y81.327 E0.06146
G1 X124.310 Y81.861 E0.01680
G1 X125.693 Y83.244 E0.06146
G1 X125.693 Y83.779 E0.01680
G1 X124.310 Y82.396 E0.06146
G1 X124.310 Y82.930 E0.01680
G1 X125.693 Y84.313 E0.06146
G1 X125.693 Y84.848 E0.01680
G1 X124.310 Y83.465 E0.06146
G1 X124.310 Y83.999 E0.01680
G1 X125.693 Y85.382 E0.06146
G1 X125.693 Y85.917 E0.01680
G1 X124.310 Y84.534 E0.06146
G1 X124.310 Y85.068 E0.01680
G1 X125.692 Y86.451 E0.06146
G1 X125.692 Y86.986 E0.01680
G1 X124.310 Y85.603 E0.06145
G1 X124.310 Y86.137 E0.01680
G1 X125.692 Y87.520 E0.06145
G1 X125.692 Y88.054 E0.01680
G1 X124.310 Y86.672 E0.06145
G1 X124.310 Y87.206 E0.01680
G1 X125.692 Y88.589 E0.06145
G1 X125.692 Y89.123 E0.01680
G1 X124.310 Y87.741 E0.06145
G1 X124.310 Y88.275 E0.01680
G1 X125.692 Y89.658 E0.06145
G1 X125.692 Y90.192 E0.01680
G1 X124.310 Y88.810 E0.06145
G1 X124.310 Y89.344 E0.01680
G1 X125.692 Y90.727 E0.06145
G1 X125.692 Y91.261 E0.01680
G1 X124.310 Y89.879 E0.06145
G1 X124.310 Y90.413 E0.01680
G1 X125.692 Y91.796 E0.06145
G1 X125.692 Y92.330 E0.01680
G1 X124.310 Y90.947 E0.06144
G1 X124.310 Y91.482 E0.01680
G1 X125.692 Y92.865 E0.06144
G1 X125.692 Y93.399 E0.01680
G1 X124.310 Y92.016 E0.06144
G1 X124.310 Y92.551 E0.01680
G1 X125.692 Y93.933 E0.06144
G1 X125.692 Y94.468 E0.01680
G1 X124.310 Y93.085 E0.06144
G1 X124.310 Y93.620 E0.01680
G1 X125.692 Y95.002 E0.06144
G1 X125.692 Y95.537 E0.01680
G1 X124.310 Y94.154 E0.06144
G1 X124.310 Y94.689 E0.01680
G1 X125.692 Y96.071 E0.06144
G1 X125.692 Y96.606 E0.01680
G1 X124.310 Y95.223 E0.06144
G1 X124.310 Y95.758 E0.01680
G1 X125.692 Y97.140 E0.06143
G1 X125.692 Y97.675 E0.01680
G1 X124.310 Y96.292 E0.06143
G1 X124.310 Y96.827 E0.01680
G1 X125.692 Y98.209 E0.06143
G1 X125.692 Y98.743 E0.01680
G1 X124.310 Y97.361 E0.06143
G1 X124.310 Y97.896 E0.01680
G1 X125.692 Y99.278 E0.06143
G1 X125.692 Y99.812 E0.01680
G1 X124.310 Y98.430 E0.06143
G1 X124.310 Y98.965 E0.01680
G1 X125.692 Y100.347 E0.06143
G1 X125.692 Y100.881 E0.01680
G1 X124.310 Y99.499 E0.06143
G1 X124.310 Y100.034 E0.01680
G1 X125.692 Y101.416 E0.06143
G1 X125.692 Y101.950 E0.01680
G1 X124.310 Y100.568 E0.06143
G1 X124.310 Y101.103 E0.01680
G1 X125.692 Y102.485 E0.06142
G1 X125.692 Y103.019 E0.01680
G1 X124.310 Y101.637 E0.06142
G1 X124.310 Y102.171 E0.01680
G1 X125.692 Y103.554 E0.06142
G1 X125.692 Y104.088 E0.01680
G1 X124.310 Y102.706 E0.06142
G1 X124.310 Y103.240 E0.01680
G1 X125.692 Y104.622 E0.06142
G1 X125.692 Y105.157 E0.01680
G1 X124.310 Y103.775 E0.06142
G1 X124.310 Y104.309 E0.01680
G1 X125.692 Y105.691 E0.06142
G1 X125.692 Y106.226 E0.01680
G1 X124.310 Y104.844 E0.06142
G1 X124.310 Y105.378 E0.01680
G1 X125.692 Y106.760 E0.06142
G1 X125.692 Y107.295 E0.01680
G1 X124.310 Y105.913 E0.06141
G1 X124.310 Y106.447 E0.01680
G1 X125.692 Y107.829 E0.06141
G1 X125.692 Y108.364 E0.01680
G1 X124.310 Y106.982 E0.06141
G1 X124.310 Y107.516 E0.01680
G1 X125.691 Y108.898 E0.06141
G1 X125.691 Y109.433 E0.01680
G1 X124.310 Y108.051 E0.06141
G1 X124.310 Y108.585 E0.01680
G1 X125.691 Y109.967 E0.06141
G1 X125.691 Y110.501 E0.01680
G1 X124.310 Y109.120 E0.06141
G1 X124.310 Y109.654 E0.01680
G1 X125.691 Y111.036 E0.06141
G1 X125.691 Y111.570 E0.01680
G1 X124.310 Y110.189 E0.06141
G1 X124.310 Y110.723 E0.01680
G1 X125.691 Y112.105 E0.06141
G1 X125.691 Y112.639 E0.01680
G1 X124.310 Y111.258 E0.06140
G1 X124.310 Y111.792 E0.01680
G1 X125.691 Y113.174 E0.06140
G1 X125.691 Y113.708 E0.01680
G1 X124.310 Y112.326 E0.06140
G1 X124.310 Y112.861 E0.01680
G1 X125.691 Y114.243 E0.06140
G1 X125.691 Y114.777 E0.01680
G1 X124.310 Y113.395 E0.06140
G1 X124.310 Y113.930 E0.01680
G1 X125.691 Y115.311 E0.06140
G1 X125.691 Y115.846 E0.01680
G1 X124.310 Y114.464 E0.06140
G1 X124.310 Y114.999 E0.01680
G1 X125.691 Y116.380 E0.06140
G1 X125.691 Y116.915 E0.01680
G1 X124.310 Y115.533 E0.06140
G1 X124.310 Y116.068 E0.01680
G1 X125.691 Y117.449 E0.06139
G1 X125.691 Y117.984 E0.01680
G1 X124.310 Y116.602 E0.06139
G1 X124.310 Y117.137 E0.01680
G1 X125.691 Y118.518 E0.06139
G1 X125.691 Y119.053 E0.01680
G1 X124.310 Y117.671 E0.06139
G1 X124.310 Y118.206 E0.01680
G1 X125.691 Y119.587 E0.06139
G1 X125.691 Y120.122 E0.01680
G1 X124.310 Y118.740 E0.06139
G1 X124.310 Y119.275 E0.01680
G1 X125.691 Y120.656 E0.06139
G1 X125.691 Y121.190 E0.01680
G1 X124.310 Y119.809 E0.06139
G1 X124.310 Y120.344 E0.01680
G1 X125.691 Y121.725 E0.06139
G1 X125.691 Y122.259 E0.01680
G1 X124.310 Y120.878 E0.06139
G1 X124.310 Y121.413 E0.01680
G1 X125.691 Y122.794 E0.06138
G1 X125.691 Y123.328 E0.01680
G1 X124.310 Y121.947 E0.06138
G1 X124.310 Y122.482 E0.01680
G1 X125.691 Y123.863 E0.06138
G1 X125.691 Y124.397 E0.01680
G1 X124.310 Y123.016 E0.06138
G1 X124.310 Y123.550 E0.01680
G1 X125.691 Y124.932 E0.06138
G1 X125.691 Y125.466 E0.01680
G1 X124.310 Y124.085 E0.06138
G1 X124.310 Y124.619 E0.01680
G1 X125.691 Y126.001 E0.06138
G1 X125.691 Y126.535 E0.01680
G1 X124.310 Y125.154 E0.06138
G1 X124.310 Y125.688 E0.01680
G1 X125.691 Y127.069 E0.06138
G1 X125.691 Y127.604 E0.01680
G1 X124.310 Y126.223 E0.06138
G1 X124.310 Y126.757 E0.01680
G1 X125.691 Y128.138 E0.06137
G1 X125.691 Y128.673 E0.01680
G1 X124.310 Y127.292 E0.06137
G1 X124.310 Y127.826 E0.01680
G1 X125.691 Y129.207 E0.06137
G1 X125.691 Y129.742 E0.01680
G1 X124.310 Y128.361 E0.06137
G1 X124.310 Y128.895 E0.01680
G1 X125.691 Y130.276 E0.06137
G1 X125.691 Y130.811 E0.01680
G1 X124.310 Y129.430 E0.06137
G1 X124.310 Y129.964 E0.01680
G1 X125.691 Y131.345 E0.06137
G1 X125.690 Y131.879 E0.01680
G1 X124.310 Y130.499 E0.06137
G1 X124.310 Y131.033 E0.01680
G1 X125.690 Y132.414 E0.06137
G1 X125.690 Y132.948 E0.01680
G1 X124.310 Y131.568 E0.06136
G1 X124.310 Y132.102 E0.01680
G1 X125.690 Y133.483 E0.06136
G1 X125.690 Y134.017 E0.01680
G1 X124.310 Y132.637 E0.06136
G1 X124.310 Y133.171 E0.01680
G1 X125.269 Y134.130 E0.04263
G1 X124.734 Y134.130 E0.01680
G1 X124.140 Y133.536 E0.02641
M106 S255
;BEFORE_LAYER_CHANGE
G92 E0.0
;0.35


G1 F8640
G1 X124.734 Y134.130 E-0.19408
G1 X125.269 Y134.130 E-0.12341
G1 X124.310 Y133.171 E-0.31320
G1 X124.310 Y132.637 E-0.12341
G1 X124.328 Y132.655 E-0.00590
G1 E-0.04000 F2100.00000
G1 Z0.800 F10800.000
;AFTER_LAYER_CHANGE
;0.35
G1 X120.854 Y135.853
G1 Z0.350
G1 E0.80000 F2100.00000
G1 F2436
G1 X120.682 Y135.072 E0.01934
G1 X120.686 Y74.851 E1.45642
G1 X120.826 Y74.215 E0.01576
G1 X121.148 Y73.648 E0.01576
G1 X121.623 Y73.201 E0.01576
G1 X122.208 Y72.914 E0.01576
G1 X122.826 Y72.812 E0.01515
G1 X127.134 Y72.811 E0.10421
G1 X127.954 Y72.972 E0.02021
G1 X128.651 Y73.426 E0.02012
G1 X129.130 Y74.111 E0.02021
G1 X129.318 Y74.925 E0.02021
G1 X129.314 Y135.149 E1.45651
G1 X129.172 Y135.788 E0.01585
G1 X128.845 Y136.360 E0.01594
G1 X128.365 Y136.807 E0.01585
G1 X127.775 Y137.092 E0.01585
G1 X127.171 Y137.188 E0.01480
G1 X122.720 Y137.183 E0.10765
G1 X121.945 Y136.984 E0.01934
G1 X121.294 Y136.520 E0.01934
G1 X120.887 Y135.903 E0.01789
G1 F8640
G1 X120.682 Y135.072 E-0.19761
G1 X120.682 Y132.636 E-0.56239
G1 E-0.04000 F2100.00000
G1 Z0.950 F10800.000
G1 X123.708 Y134.357
G1 Z0.350
G1 E0.80000 F2100.00000
M204 S800
G1 F2436
G1 X123.708 Y75.643 E1.52985
G1 X126.293 Y75.643 E0.06735
G1 X126.292 Y134.357 E1.52985
G1 X123.768 Y134.357 E0.06577
M204 S1000
G1 X123.768 Y134.775 F10800.000
M204 S800
G1 F1500
G1 X123.290 Y134.775 E0.01245
G1 X123.290 Y75.225 E1.55162
G1 X126.710 Y75.225 E0.08912
G1 X126.710 Y134.775 E1.55162
G1 X123.828 Y134.775 E0.07510
M204 S1000
G1 X123.425 Y134.569 F10800.000
G1 F8640
G1 X123.290 Y134.775 E-0.12418
G1 X123.290 Y132.021 E-0.63582
G1 E-0.04000 F2100.00000
G1 Z0.950 F10800.000
G1 X125.322 Y134.232
G1 Z0.350
G1 E0.80000 F2100.00000
M204 S1250
G1 F2436
G1 X125.979 Y133.575 E0.02421
G1 X125.979 Y132.984 E0.01541
G1 X124.919 Y134.044 E0.03907
G1 X124.328 Y134.044 E0.01541
G1 X125.979 Y132.393 E0.06086
G1 X125.979 Y131.802 E0.01541
G1 X124.021 Y133.759 E0.07216
G1 X124.021 Y133.168 E0.01541
G1 X125.979 Y131.211 E0.07216
G1 X125.979 Y130.620 E0.01541
G1 X124.021 Y132.577 E0.07216
G1 X124.021 Y131.986 E0.01541
G1 X125.979 Y130.028 E0.07216
G1 X125.979 Y129.437 E0.01541
G1 X124.021 Y131.395 E0.07216
G1 X124.021 Y130.804 E0.01541
G1 X125.979 Y128.846 E0.07216
G1 X125.979 Y128.255 E0.01541
G1 X124.021 Y130.213 E0.07217
G1 X124.021 Y129.622 E0.01541
G1 X125.979 Y127.664 E0.07217
G1 X125.979 Y127.073 E0.01541
G1 X124.021 Y129.031 E0.07217
G1 X124.021 Y128.440 E0.01541
G1 X125.979 Y126.482 E0.07217
G1 X125.979 Y125.891 E0.01541
G1 X124.021 Y127.849 E0.07217
G1 X124.021 Y127.258 E0.01541
G1 X125.979 Y125.300 E0.07217
G1 X125.979 Y124.709 E0.01541
G1 X124.021 Y126.666 E0.07217
G1 X124.021 Y126.075 E0.01541
G1 X125.979 Y124.118 E0.07217
G1 X125.979 Y123.526 E0.01541
G1 X124.021 Y125.484 E0.07217
G1 X124.021 Y124.893 E0.01541
G1 X125.979 Y122.935 E0.07217
G1 X125.979 Y122.344 E0.01541
G1 X124.021 Y124.302 E0.07217
G1 X124.021 Y123.711 E0.01541
G1 X125.979 Y121.753 E0.07217
G1 X125.979 Y121.162 E0.01541
G1 X124.021 Y123.120 E0.07217
G1 X124.021 Y122.529 E0.01541
G1 X125.979 Y120.571 E0.07217
G1 X125.979 Y119.980 E0.01541
G1 X124.021 Y121.938 E0.07217
G1 X124.021 Y121.347 E0.01541
G1 X125.979 Y119.389 E0.07217
G1 X125.979 Y118.798 E0.01541
G1 X124.021 Y120.756 E0.07217
G1 X124.021 Y120.165 E0.01541
G1 X125.979 Y118.207 E0.07217
G1 X125.979 Y117.616 E0.01541
G1 X124.021 Y119.574 E0.07217
G1 X124.021 Y118.982 E0.01541
G1 X125.979 Y117.025 E0.07217
G1 X125.979 Y116.433 E0.01541
G1 X124.021 Y118.391 E0.07217
G1 X124.021 Y117.800 E0.01541
G1 X125.979 Y115.842 E0.07217
G1 X125.979 Y115.251 E0.01541
G1 X124.021 Y117.209 E0.07217
G1 X124.021 Y116.618 E0.01541
G1 X125.979 Y114.660 E0.07217
G1 X125.979 Y114.069 E0.01541
G1 X124.021 Y116.027 E0.07218
G1 X124.021 Y115.436 E0.01541
G1 X125.979 Y113.478 E0.07218
G1 X125.979 Y112.887 E0.01541
G1 X124.021 Y114.845 E0.07218
G1 X124.021 Y114.254 E0.01541
G1 X125.979 Y112.296 E0.07218
G1 X125.979 Y111.705 E0.01541
G1 X124.021 Y113.663 E0.07218
G1 X124.021 Y113.072 E0.01541
G1 X125.979 Y111.114 E0.07218
G1 X125.979 Y110.523 E0.01541
G1 X124.021 Y112.481 E0.07218
G1 X124.021 Y111.890 E0.01541
G1 X125.979 Y109.931 E0.07218
G1 X125.979 Y109.340 E0.01541
G1 X124.021 Y111.298 E0.07218
G1 X124.021 Y110.707 E0.01541
G1 X125.979 Y108.749 E0.07218
G1 X125.979 Y108.158 E0.01541
G1 X124.021 Y110.116 E0.07218
G1 X124.021 Y109.525 E0.01541
G1 X125.979 Y107.567 E0.07218
G1 X125.979 Y106.976 E0.01541
G1 X124.021 Y108.934 E0.07218
G1 X124.021 Y108.343 E0.01541
G1 X125.979 Y106.385 E0.07218
G1 X125.979 Y105.794 E0.01541
G1 X124.021 Y107.752 E0.07218
G1 X124.021 Y107.161 E0.01541
G1 X125.979 Y105.203 E0.07218
G1 X125.979 Y104.612 E0.01541
G1 X124.021 Y106.570 E0.07218
G1 X124.021 Y105.979 E0.01541
G1 X125.979 Y104.021 E0.07218
G1 X125.979 Y103.429 E0.01541
G1 X124.021 Y105.388 E0.07218
G1 X124.021 Y104.797 E0.01541
G1 X125.979 Y102.838 E0.07218
G1 X125.979 Y102.247 E0.01541
G1 X124.021 Y104.206 E0.07218
G1 X124.021 Y103.614 E0.01541
G1 X125.979 Y101.656 E0.07218
G1 X125.979 Y101.065 E0.01541
G1 X124.021 Y103.023 E0.07218
G1 X124.021 Y102.432 E0.01541
G1 X125.979 Y100.474 E0.07219
G1 X125.979 Y99.883 E0.01541
G1 X124.021 Y101.841 E0.07219
G1 X124.021 Y101.250 E0.01541
G1 X125.980 Y99.292 E0.07219
G1 X125.980 Y98.701 E0.01541
G1 X124.021 Y100.659 E0.07219
G1 X124.021 Y100.068 E0.01541
G1 X125.980 Y98.110 E0.07219
G1 X125.980 Y97.519 E0.01541
G1 X124.021 Y99.477 E0.07219
G1 X124.021 Y98.886 E0.01541
G1 X125.980 Y96.928 E0.07219
G1 X125.980 Y96.336 E0.01541
G1 X124.021 Y98.295 E0.07219
G1 X124.021 Y97.704 E0.01541
G1 X125.980 Y95.745 E0.07219
G1 X125.980 Y95.154 E0.01541
G1 X124.021 Y97.113 E0.07219
G1 X124.021 Y96.522 E0.01541
G1 X125.980 Y94.563 E0.07219
G1 X125.980 Y93.972 E0.01541
G1 X124.021 Y95.931 E0.07219
G1 X124.021 Y95.339 E0.01541
G1 X125.980 Y93.381 E0.07219
M73 Q11 S8
G1 X125.980 Y92.790 E0.01541
G1 X124.021 Y94.748 E0.07219
G1 X124.021 Y94.157 E0.01541
G1 X125.980 Y92.199 E0.07219
G1 X125.980 Y91.608 E0.01541
M73 P11 R8
G1 X124.021 Y93.566 E0.07219
G1 X124.021 Y92.975 E0.01541
G1 X125.980 Y91.017 E0.07219
G1 X125.980 Y90.426 E0.01541
G1 X124.021 Y92.384 E0.07219
G1 X124.021 Y91.793 E0.01541
G1 X125.980 Y89.834 E0.07219
G1 X125.980 Y89.243 E0.01541
G1 X124.021 Y91.202 E0.07219
G1 X124.021 Y90.611 E0.01541
G1 X125.980 Y88.652 E0.07219
G1 X125.980 Y88.061 E0.01541
G1 X124.021 Y90.020 E0.07219
G1 X124.021 Y89.429 E0.01541
G1 X125.980 Y87.470 E0.07219
G1 X125.980 Y86.879 E0.01541
G1 X124.021 Y88.838 E0.07219
G1 X124.021 Y88.247 E0.01541
G1 X125.980 Y86.288 E0.07220
G1 X125.980 Y85.697 E0.01541
G1 X124.021 Y87.655 E0.07220
G1 X124.021 Y87.064 E0.01541
G1 X125.980 Y85.106 E0.07220
